storage/app/icons/phosphoricons/thin/elevator-thin.svg

<svg xmlns="http://www.w3.org/2000/svg" fill="currentColor" viewBox="0 0 256 256"><path d="M208 36H48a12 12 0 0 0-12 12v160a12 12 0 0 0 12 12h160a12 12 0 0 0 12-12V48a12 12 0 0 0-12-12m-28 72v104h-48V108Zm-56 104H76V108h48Zm88-4a4 4 0 0 1-4 4h-20V104a4 4 0 0 0-4-4H72a4 4 0 0 0-4 4v108H48a4 4 0 0 1-4-4V48a4 4 0 0 1 4-4h160a4 4 0 0 1 4 4ZM148 72a4 4 0 0 1-4 4h-32a4 4 0 0 1 0-8h32a4 4 0 0 1 4 4"/></svg>

<svg xmlns="http://www.w3.org/2000/svg" viewBox="0 0 256 256" fill="currentColor"><path d="M208,36H48A12,12,0,0,0,36,48V208a12,12,0,0,0,12,12H208a12,12,0,0,0,12-12V48A12,12,0,0,0,208,36Zm-28,72V212H132V108ZM124,212H76V108h48Zm88-4a4,4,0,0,1-4,4H188V104a4,4,0,0,0-4-4H72a4,4,0,0,0-4,4V212H48a4,4,0,0,1-4-4V48a4,4,0,0,1,4-4H208a4,4,0,0,1,4,4ZM148,72a4,4,0,0,1-4,4H112a4,4,0,0,1,0-8h32A4,4,0,0,1,148,72Z"/></svg>
